lib/svgs/outdent.svg

<svg xmlns="http://www.w3.org/2000/svg" viewBox="0 0 20 20">
    <path fill="#000" fill-rule="evenodd" d="M3.6,5.2 L16.6,5.2 C16.9313708,5.2 17.2,4.93137085 17.2,4.6 C17.2,4.26862915 16.9313708,4 16.6,4 L3.6,4 C3.26862915,4 3,4.26862915 3,4.6 C3,4.93137085 3.26862915,5.2 3.6,5.2 L3.6,5.2 L3.6,5.2 Z M3.6,8.74545455 L7.14545455,8.74545455 C7.4768254,8.74545455 7.74545455,8.4768254 7.74545455,8.14545455 C7.74545455,7.8140837 7.4768254,7.54545455 7.14545455,7.54545455 L3.6,7.54545455 C3.26862915,7.54545455 3,7.8140837 3,8.14545455 C3,8.4768254 3.26862915,8.74545455 3.6,8.74545455 L3.6,8.74545455 L3.6,8.74545455 Z M11.4848857,9.31818182 L12.824258,7.97880952 C13.0585725,7.74449495 13.0585725,7.36459596 12.824258,7.13028139 C12.5899434,6.89596681 12.2100444,6.89596681 11.9757298,7.13028139 L9.61209346,9.49391775 C9.37777889,9.72823232 9.37777889,10.1081313 9.61209346,10.3424459 L11.9757298,12.7060823 C12.2100444,12.9403968 12.5899434,12.9403968 12.824258,12.7060823 C13.0585725,12.4717677 13.0585725,12.0918687 12.824258,11.8575541 L11.4956442,10.5181818 L16.6000061,10.5181818 C16.931377,10.5181818 17.2000061,10.2495527 17.2000061,9.91818182 C17.2000061,9.58681097 16.931377,9.31818182 16.6000061,9.31818182 L11.4848857,9.31818182 L11.4848857,9.31818182 L11.4848857,9.31818182 Z M3.6,12.2909091 L7.14545455,12.2909091 C7.4768254,12.2909091 7.74545455,12.0222799 7.74545455,11.6909091 C7.74545455,11.3595382 7.4768254,11.0909091 7.14545455,11.0909091 L3.6,11.0909091 C3.26862915,11.0909091 3,11.3595382 3,11.6909091 C3,12.0222799 3.26862915,12.2909091 3.6,12.2909091 L3.6,12.2909091 L3.6,12.2909091 Z M3.6000061,15.8363636 L16.6000061,15.8363636 C16.931377,15.8363636 17.2000061,15.5677345 17.2000061,15.2363636 C17.2000061,14.9049928 16.931377,14.6363636 16.6000061,14.6363636 L3.6000061,14.6363636 C3.26863525,14.6363636 3.0000061,14.9049928 3.0000061,15.2363636 C3.0000061,15.5677345 3.26863525,15.8363636 3.6000061,15.8363636 L3.6000061,15.8363636 L3.6000061,15.8363636 Z"/>
</svg>

<svg xmlns="http://www.w3.org/2000/svg" viewBox="0 0 20 20">
    <path fill="#000" fill-rule="evenodd" d="M3.6 5.2h13a.6.6 0 0 0 0-1.2h-13a.6.6 0 1 0 0 1.2m0 3.545h3.545a.6.6 0 1 0 0-1.2H3.6a.6.6 0 1 0 0 1.2m7.885.573l1.34-1.34a.6.6 0 0 0-.85-.848L9.613 9.494a.6.6 0 0 0 0 .848l2.364 2.364a.6.6 0 0 0 .848-.848l-1.328-1.34H16.6a.6.6 0 1 0 0-1.2h-5.115M3.6 12.291h3.545a.6.6 0 0 0 0-1.2H3.6a.6.6 0 1 0 0 1.2m0 3.545h13a.6.6 0 1 0 0-1.2h-13a.6.6 0 0 0 0 1.2"/>
</svg>
